X:97
T:Green Green the Rushes all among the Bushes
S:John Moore's Book 2
Z:Transcribed by Steve Mansfield 05/2021
%%VWML: Moore2-4494-p74-0
F:http://www.vwml.org/record/Moore2/4494/p74
M:C
L:1/8
K:G
G2G>A B>GG2 | A>A A/B/c/d/ eAA>B | c>dec B>cdB | (3ABc BA GEE2 :| 
|: gfge dBAG | gfga be2f | gfge dB AG | ABBA GEE2 :|

